Production/EA4S_WordDrawings/SVG/singles_SVG/pear.svg

<?xml version="1.0" encoding="UTF-8" standalone="no"?><!DOCTYPE svg PUBLIC "-//W3C//DTD SVG 1.1//EN" "http://www.w3.org/Graphics/SVG/1.1/DTD/svg11.dtd"><svg width="100%" height="100%" viewBox="0 0 398 509" version="1.1" xmlns="http://www.w3.org/2000/svg" xmlns:xlink="http://www.w3.org/1999/xlink" xml:space="preserve" style="fill-rule:evenodd;clip-rule:evenodd;stroke-linejoin:round;stroke-miterlimit:1.41421;"><g id="pear"><path d="M199.143,108.198c-16.162,-16.58 -45.545,-4.653 -62.234,5.22c-19.905,11.775 -30.25,31.823 -35.734,53.606c-5.507,21.875 -6.458,44.927 -14.639,66.111c-8.303,21.5 -25.883,38.892 -40.843,55.917c-15.213,17.312 -29.994,35.515 -38.186,57.334c-8.231,21.93 -8.863,46.551 -3.277,69.189c11.976,48.53 57.995,76.67 104.223,86.182c12.269,2.524 24.759,3.639 37.256,4.155c11.689,0.483 23.725,0.69 35.327,-0.987c9.955,-1.439 18.768,-5.207 27.429,-10.138c3.646,-2.076 7.276,-4.183 10.962,-6.19c1.599,-0.869 3.218,-1.695 4.859,-2.481c1.375,-0.659 2.896,-0.356 0.978,-0.709c6.17,1.134 13.017,-10.053 5.397,-11.453c-3.508,-0.646 -6.966,1.146 -10.049,2.556c-4.701,2.152 -9.167,4.862 -13.647,7.43c-4.181,2.396 -8.295,4.892 -12.807,6.613c-6.415,2.447 -13.189,3.312 -20,3.721c-29.672,1.781 -60.722,-1.37 -88.558,-12.133c-21.741,-8.405 -41.525,-21.898 -55.35,-40.84c-13.033,-17.857 -18.354,-39.824 -17.984,-61.689c0.408,-24.304 9.536,-45.429 23.909,-64.677c14.005,-18.753 30.928,-35.104 44.909,-53.887c6.892,-9.256 12.692,-18.966 16.573,-29.862c3.809,-10.696 6.039,-21.825 7.943,-32.992c3.667,-21.505 6.01,-44.552 18.978,-62.853c7.509,-10.597 18.852,-17.463 30.705,-22.299c12.904,-5.265 28.453,-7.518 41.871,-2.71c1.036,0.369 3.039,-1.057 1.989,-2.134Z" style="fill:#010101;fill-rule:nonzero;"/><path d="M205.369,496.083c25.488,2.951 50.104,13.292 75.986,12.795c23.574,-0.454 47.731,-12.345 66.296,-26.17c38.548,-28.709 54.771,-78.149 48.096,-124.884c-2.382,-16.674 -8.151,-32.61 -17.726,-46.504c-7.228,-10.487 -16.955,-17.874 -27.793,-24.303c-12.038,-7.143 -25.055,-12.888 -38.508,-16.765c-10.604,-3.056 -23.895,-5.5 -33.739,0.936c-1.966,1.284 -3.75,3.295 -3.616,5.811c0.148,2.809 3.06,3.9 5.457,3.063c6.936,-2.421 15.025,-1.096 21.993,0.476c9.969,2.246 19.51,6.234 28.67,10.691c8.427,4.101 16.623,8.857 24.116,14.498c8.087,6.085 14.271,14.831 18.922,23.702c11.979,22.86 13.47,49.723 10.033,74.859c-3.014,22.049 -12.763,43.014 -28.061,59.223c-16.826,17.828 -41.02,31.403 -65.431,34.862c-14.403,2.04 -28.763,-0.993 -42.793,-4.005c-6.606,-1.418 -13.25,-2.98 -19.987,-3.612c-7.316,-0.685 -13.926,-0.003 -21.098,1.5c-1.48,0.313 -3.11,3.562 -0.817,3.827Z" style="fill:#010101;fill-rule:nonzero;"/><path d="M177.564,122.573c7.922,5.92 16.994,4.854 26.223,3.467c4.902,-0.735 10.039,-1.336 15,-1.087c5.813,0.291 11.084,2.649 16.266,5.103c16.856,7.98 29.115,22.246 37.195,38.785c8.098,16.569 12.332,34.809 16.422,52.688c4.737,20.707 8.405,42.757 20.514,60.666c2.668,-2.863 5.338,-5.729 8.008,-8.592c-2.221,-0.938 -4.655,-1.178 -6.678,-2.455c-3.636,-2.299 -10.135,4.012 -6.908,7.413c1.923,2.025 3.949,3.306 6.514,4.378c4.699,1.966 11.186,-3.926 8.008,-8.592c-12.027,-17.666 -15.281,-40.582 -20.047,-61.033c-4.26,-18.283 -8.988,-36.679 -17.688,-53.427c-8.467,-16.297 -20.998,-29.668 -37.516,-37.913c-10.229,-5.107 -20.13,-7.221 -31.476,-5.216c-10.636,1.879 -21.523,5.967 -32.343,3.361c-1.233,-0.297 -2.673,1.573 -1.494,2.454Z" style="fill:#010101;fill-rule:nonzero;"/><path d="M194.496,114.493c2.149,-4.525 3.159,-9.39 4.892,-14.088c1.86,-5.052 3.915,-10.006 6.475,-14.749c5.55,-10.283 12.431,-19.709 20.147,-28.465c13.916,-15.786 32.452,-29.948 53.344,-34.505c5.516,-1.203 8.621,-11.773 0.939,-11.232c-6.541,0.46 -9.728,3.632 -13.523,8.534c-1.692,2.185 -0.261,4.653 2.438,4.011c2.658,-0.633 5.866,-0.81 8.613,-1.003c0.313,-3.744 0.627,-7.488 0.939,-11.231c-23.647,5.303 -43.631,22.522 -59.144,40.343c-8.381,9.626 -15.736,20.571 -21.053,32.189c-3.962,8.659 -9.976,21.139 -7.041,30.804c0.465,1.523 2.567,0.248 2.974,-0.608Z" style="fill:#010101;fill-rule:nonzero;"/><path d="M206.464,65.029c0.19,-0.953 0.725,-1.885 0.655,-2.871c-0.079,-1.141 -0.107,-2.28 -0.188,-3.418c-0.136,-1.917 -0.939,-4.031 -1.806,-5.729c-2.654,-5.208 -8.51,-7.282 -13.255,-3.042c-2.021,1.806 -3.072,4.537 -1.484,6.932c0.938,1.416 2.793,1.791 4.335,2.124c-0.877,-0.189 0.896,0.711 0.511,0.379c0.575,0.494 1.052,1.101 1.516,1.695c0.881,1.128 1.52,2.403 2.523,3.43c0.643,0.656 0.854,1.573 1.714,2.039c0.869,0.373 1.041,0.404 0.514,0.094c0.301,0.248 0.61,0.486 0.928,0.713c1.493,1.109 3.76,-0.95 4.037,-2.346Z" style="fill:#010101;fill-rule:nonzero;"/><path d="M17.615,31.162c12.285,2.219 23.742,-0.725 35.786,-3.473c16.48,-3.76 32.8,-8.194 49.333,-11.733c16.002,-3.426 32.409,-6.251 48.83,-5.88c12.179,0.275 25.322,2.984 33.587,12.629c5.265,6.145 7.085,14.358 7.549,22.236c3.49,-1.543 6.979,-3.087 10.47,-4.631c-2.104,-3.548 -4.415,-5.586 -8.559,-6.38c-2.21,-0.424 -5.433,1.964 -5.021,4.404c0.523,3.096 1.781,5.147 3.356,7.803c3.029,5.104 10.766,0.416 10.469,-4.632c-0.817,-13.896 -6.032,-26.752 -18.273,-34.218c-11.882,-7.246 -27.164,-7.699 -40.629,-6.859c-33.659,2.095 -66.093,13.735 -98.493,22.156c-4.967,1.291 -9.985,2.323 -14.974,3.514c-4.222,1.007 -8.489,2.614 -12.784,3.177c-0.785,0.101 -1.899,1.661 -0.647,1.887Z" style="fill:#010101;fill-rule:nonzero;"/><path d="M12.5,29.958c13.406,8.398 26.935,17.236 41.46,23.636c14.91,6.568 31.199,11.215 47.188,14.214c33.023,6.194 66.446,1.974 95.542,-15.316c3.86,-2.294 5.768,-9.427 -0.528,-9.417c-5.071,0.008 -9.885,0.253 -14.339,2.917c-2.256,1.349 -4.692,6.313 -0.58,7.084c4.138,0.775 8.521,0.304 12.713,0.296c-0.177,-3.139 -0.353,-6.277 -0.528,-9.417c-28.037,16.674 -59.386,19.246 -90.946,13.05c-15.317,-3.007 -30.913,-7.198 -45.33,-13.225c-14.228,-5.946 -27.977,-14.352 -43.715,-15.355c-0.687,-0.044 -1.806,0.991 -0.937,1.533Z" style="fill:#010101;fill-rule:nonzero;"/><path d="M44.028,420.306c-2.381,13.549 11.337,24.43 22.34,29.468c10.615,4.859 25.024,6.438 33.622,-2.796c7.628,-8.194 1.799,-17.782 -6.716,-21.564c-8.328,-3.699 -20.66,-6.876 -29.171,-2.684c-1.914,0.941 -3.104,3.803 -1.122,5.233c5.039,3.642 13.18,3.126 19.177,4.707c4.045,1.066 13.753,4.072 11.125,9.907c-1.408,3.128 -7.918,2.625 -10.597,2.439c-4.57,-0.313 -9.04,-1.521 -13.258,-3.263c-10.339,-4.268 -18.432,-12.146 -23.37,-22.104c-0.482,-0.972 -1.886,-0.166 -2.03,0.657Z" style="fill:#010101;fill-rule:nonzero;"/><path d="M136.731,458.412c-3.161,18.334 24.702,6.225 18.891,-3.298c-1.535,-2.517 -5.53,-0.08 -6.709,1.394c-0.554,0.691 -0.888,1.485 -1.322,2.244c-0.679,1.188 0.438,-0.359 -0.486,0.762c1.077,-1.307 -1.375,0.963 -0.188,0.129c-0.342,0.24 -0.709,0.441 -1.075,0.643c-1.132,0.621 0.729,-0.237 -0.479,0.191c-0.733,0.26 -1.609,0.361 -2.116,0.141c-1.307,-0.574 -1.748,-1.719 -1.813,-3.154c-0.136,-2.932 -4.357,-1.056 -4.703,0.948Z" style="fill:#010101;fill-rule:nonzero;"/><path d="M291.942,422.347c-7.567,-1.517 -16.071,3.303 -21.893,7.646c-5.655,4.221 -11.61,10.052 -12.798,17.339c-1.299,7.974 6.584,11.554 13.137,12.632c7.75,1.274 15.688,-0.279 23.161,-2.307c13.653,-3.705 37.157,-14.565 31.615,-32.632c-2.319,-7.563 -11.51,-8.74 -18.163,-8.431c-8.748,0.405 -17.221,3.568 -24.949,7.454c-2.822,1.419 -5.394,3.392 -7.299,5.931c-1.551,2.067 -0.34,4.934 2.454,4.035c10.636,-3.422 22.358,-9.873 33.865,-7.666c5.014,0.961 6.856,6.3 4.185,10.504c-3.393,5.341 -10.235,8.346 -15.892,10.541c-6.158,2.393 -12.709,4.026 -19.289,4.646c-4.455,0.42 -13.556,0.52 -15.549,-4.534c-1.796,-4.552 5.555,-10.364 8.411,-12.657c5.394,-4.332 11.715,-6.754 18.215,-8.828c1.368,-0.437 3.035,-3.223 0.789,-3.673Z" style="fill:#010101;fill-rule:nonzero;"/><path d="M362.237,405.549c3.651,-1.098 6.93,-2.929 8.841,-6.334c1.462,-2.604 0.475,-5.799 -2.177,-7.089c-2.731,-1.328 -6.105,-0.933 -8.854,0.092c-4.229,1.577 -9.406,5.036 -10.206,9.819c-0.521,3.116 2.431,3.662 4.697,2.623c1.386,-0.635 2.313,-1.468 3.661,-2.495c0.154,-0.119 1.771,-1.369 0.826,-0.702c0.484,-0.342 1.003,-0.634 1.523,-0.916c1.213,-0.653 -0.904,0.331 0.313,-0.145c0.46,-0.181 0.937,-0.31 1.414,-0.429c0.808,-0.2 -0.789,0.075 0.477,-0.07c0.285,-0.033 1.568,0.048 0.364,-0.053c0.25,0.021 0.496,0.074 0.74,0.131c0.666,0.15 -0.79,-0.407 0.058,0.087c-0.485,-0.421 -0.593,-0.504 -0.321,-0.247c0.237,0.293 0.172,0.161 -0.199,-0.397c0.135,0.35 0.115,0.193 -0.056,-0.465c0.019,0.388 0.039,0.228 0.063,-0.481c0.275,-0.711 0.326,-0.861 0.152,-0.453c0.422,-0.646 0.493,-0.771 0.215,-0.373c-0.363,0.504 0.755,-0.654 -0.266,0.195c0.863,-0.721 -0.549,0.359 -0.738,0.479c-0.586,0.367 -1.207,0.678 -1.824,0.983c-1.435,0.713 -2.629,2.457 -2.542,4.086c0.109,2.032 2.143,2.665 3.839,2.154Z" style="fill:#010101;fill-rule:nonzero;"/><path d="M61.942,336.102c-8.401,3.32 -10.798,13.193 -8.126,21.132c2.486,7.388 15.104,17.662 22.333,10.375c1.041,-1.051 2.336,-2.881 1.556,-4.465c-0.083,-0.168 -0.166,-0.336 -0.25,-0.506c-0.766,-1.555 -1.955,-1.981 -3.607,-2.014c-5.287,-0.099 -9.834,-3.182 -12.21,-7.85c-2.601,-5.107 -0.75,-9.256 2.17,-13.605c1.002,-1.494 0.342,-3.939 -1.866,-3.067Z" style="fill:#010101;fill-rule:nonzero;"/><path d="M111.256,396.451c-0.348,1.2 -0.969,2.563 -0.699,3.891c0.33,1.626 1.059,2.803 2.388,3.797c2.666,1.992 6.728,1.824 9.785,1.104c3.959,-0.933 6.232,-8.319 0.677,-8.089c-1.999,0.082 -3.712,0.488 -5.225,0.217c-0.954,-0.171 0.417,0.25 -0.389,-0.145c-0.324,-0.207 -0.346,-0.207 -0.063,0c-0.143,-0.137 -0.27,-0.285 -0.38,-0.447c0.453,0.59 -0.331,-0.579 -0.459,-0.762c-0.227,-0.355 -0.227,-0.315 -0.001,0.123c-0.009,-0.278 0,-0.557 0.022,-0.832c0.067,-1.222 -1.214,-1.916 -2.27,-1.83c-1.648,0.134 -2.941,1.442 -3.386,2.973Z" style="fill:#010101;fill-rule:nonzero;"/><path d="M279.627,16.42c-0.294,2.789 -0.2,5.48 -0.097,8.283c0.117,3.174 1.078,7.628 -0.029,10.671c2.277,-1.327 4.555,-2.653 6.832,-3.98c-9.541,-2.197 -19.248,-0.67 -28.277,2.831c-8.623,3.343 -18.384,9.189 -22.769,17.669c-0.674,1.303 0.459,2.673 1.866,2.127c6.894,-2.675 13.09,-6.982 19.918,-9.874c7.845,-3.323 16.303,-4.93 24.707,-3.093c3.493,0.764 8.99,-3.827 7.128,-7.596c-1.33,-2.691 -1.315,-6.379 -1.874,-9.311c-0.602,-3.153 -1.286,-6.343 -2.611,-9.273c-1.035,-2.288 -4.588,-0.418 -4.794,1.546Z" style="fill:#010101;fill-rule:nonzero;"/><path d="M193.723,480.791c2.268,-0.868 4.182,-2.2 6.55,-2.855c2.865,-0.791 5.908,-1.139 8.873,-1.246c2.314,-0.084 4.947,0.29 7.138,-0.602c2.646,-1.076 5.921,-4.143 4.588,-7.369c-1.889,-4.568 -12.578,-0.816 -15.941,-0.064c-4.883,1.092 -12.936,4.33 -13.852,10.004c-0.257,1.586 1.091,2.727 2.644,2.132Z" style="fill:#010101;fill-rule:nonzero;"/></g></svg>

<?xml version="1.0" encoding="UTF-8"?>
<svg width="398px" height="509px" viewBox="0 0 398 509" version="1.1" xmlns="http://www.w3.org/2000/svg" xmlns:xlink="http://www.w3.org/1999/xlink">
    <!-- Generator: Sketch 41 (35326) - http://www.bohemiancoding.com/sketch -->
    <title>pear</title>
    <desc>Created with Sketch.</desc>
    <defs></defs>
    <g id="Page-1" stroke="none" stroke-width="1" fill="none" fill-rule="evenodd">
        <g id="Layer_1" transform="translate(-1119.000000, -1425.000000)" fill="#010101">
            <g id="Layer_1_3_">
                <g id="pear" transform="translate(1119.000000, 1425.000000)">
                    <path d="M199.143,108.198 C182.981,91.618 153.598,103.545 136.909,113.418 C117.004,125.193 106.659,145.241 101.175,167.024 C95.668,188.899 94.717,211.951 86.536,233.135 C78.233,254.635 60.653,272.027 45.693,289.052 C30.48,306.364 15.699,324.567 7.507,346.386 C-0.724,368.316 -1.356,392.937 4.23,415.575 C16.206,464.105 62.225,492.245 108.453,501.757 C120.722,504.281 133.212,505.396 145.709,505.912 C157.398,506.395 169.434,506.602 181.036,504.925 C190.991,503.486 199.804,499.718 208.465,494.787 C212.111,492.711 215.741,490.604 219.427,488.597 C221.026,487.728 222.645,486.902 224.286,486.116 C225.661,485.457 227.182,485.76 225.264,485.407 C231.434,486.541 238.281,475.354 230.661,473.954 C227.153,473.308 223.695,475.1 220.612,476.51 C215.911,478.662 211.445,481.372 206.965,483.94 C202.784,486.336 198.67,488.832 194.158,490.553 C187.743,493 180.969,493.865 174.158,494.274 C144.486,496.055 113.436,492.904 85.6,482.141 C63.859,473.736 44.075,460.243 30.25,441.301 C17.217,423.444 11.896,401.477 12.266,379.612 C12.674,355.308 21.802,334.183 36.175,314.935 C50.18,296.182 67.103,279.831 81.084,261.048 C87.976,251.792 93.776,242.082 97.657,231.186 C101.466,220.49 103.696,209.361 105.6,198.194 C109.267,176.689 111.61,153.642 124.578,135.341 C132.087,124.744 143.43,117.878 155.283,113.042 C168.187,107.777 183.736,105.524 197.154,110.332 C198.19,110.701 200.193,109.275 199.143,108.198 L199.143,108.198 Z" id="Shape"></path>
                    <path d="M205.369,496.083 C230.857,499.034 255.473,509.375 281.355,508.878 C304.929,508.424 329.086,496.533 347.651,482.708 C386.199,453.999 402.422,404.559 395.747,357.824 C393.365,341.15 387.596,325.214 378.021,311.32 C370.793,300.833 361.066,293.446 350.228,287.017 C338.19,279.874 325.173,274.129 311.72,270.252 C301.116,267.196 287.825,264.752 277.981,271.188 C276.015,272.472 274.231,274.483 274.365,276.999 C274.513,279.808 277.425,280.899 279.822,280.062 C286.758,277.641 294.847,278.966 301.815,280.538 C311.784,282.784 321.325,286.772 330.485,291.229 C338.912,295.33 347.108,300.086 354.601,305.727 C362.688,311.812 368.872,320.558 373.523,329.429 C385.502,352.289 386.993,379.152 383.556,404.288 C380.542,426.337 370.793,447.302 355.495,463.511 C338.669,481.339 314.475,494.914 290.064,498.373 C275.661,500.413 261.301,497.38 247.271,494.368 C240.665,492.95 234.021,491.388 227.284,490.756 C219.968,490.071 213.358,490.753 206.186,492.256 C204.706,492.569 203.076,495.818 205.369,496.083 L205.369,496.083 Z" id="Shape"></path>
                    <path d="M177.564,122.573 C185.486,128.493 194.558,127.427 203.787,126.04 C208.689,125.305 213.826,124.704 218.787,124.953 C224.6,125.244 229.871,127.602 235.053,130.056 C251.909,138.036 264.168,152.302 272.248,168.841 C280.346,185.41 284.58,203.65 288.67,221.529 C293.407,242.236 297.075,264.286 309.184,282.195 C311.852,279.332 314.522,276.466 317.192,273.603 C314.971,272.665 312.537,272.425 310.514,271.148 C306.878,268.849 300.379,275.16 303.606,278.561 C305.529,280.586 307.555,281.867 310.12,282.939 C314.819,284.905 321.306,279.013 318.128,274.347 C306.101,256.681 302.847,233.765 298.081,213.314 C293.821,195.031 289.093,176.635 280.393,159.887 C271.926,143.59 259.395,130.219 242.877,121.974 C232.648,116.867 222.747,114.753 211.401,116.758 C200.765,118.637 189.878,122.725 179.058,120.119 C177.825,119.822 176.385,121.692 177.564,122.573 L177.564,122.573 Z" id="Shape"></path>
                    <path d="M194.496,114.493 C196.645,109.968 197.655,105.103 199.388,100.405 C201.248,95.353 203.303,90.399 205.863,85.656 C211.413,75.373 218.294,65.947 226.01,57.191 C239.926,41.405 258.462,27.243 279.354,22.686 C284.87,21.483 287.975,10.913 280.293,11.454 C273.752,11.914 270.565,15.086 266.77,19.988 C265.078,22.173 266.509,24.641 269.208,23.999 C271.866,23.366 275.074,23.189 277.821,22.996 C278.134,19.252 278.448,15.508 278.76,11.765 C255.113,17.068 235.129,34.287 219.616,52.108 C211.235,61.734 203.88,72.679 198.563,84.297 C194.601,92.956 188.587,105.436 191.522,115.101 C191.987,116.624 194.089,115.349 194.496,114.493 L194.496,114.493 Z" id="Shape"></path>
                    <path d="M206.464,65.029 C206.654,64.076 207.189,63.144 207.119,62.158 C207.04,61.017 207.012,59.878 206.931,58.74 C206.795,56.823 205.992,54.709 205.125,53.011 C202.471,47.803 196.615,45.729 191.87,49.969 C189.849,51.775 188.798,54.506 190.386,56.901 C191.324,58.317 193.179,58.692 194.721,59.025 C193.844,58.836 195.617,59.736 195.232,59.404 C195.807,59.898 196.284,60.505 196.748,61.099 C197.629,62.227 198.268,63.502 199.271,64.529 C199.914,65.185 200.125,66.102 200.985,66.568 C201.854,66.941 202.026,66.972 201.499,66.662 C201.8,66.91 202.109,67.148 202.427,67.375 C203.92,68.484 206.187,66.425 206.464,65.029 L206.464,65.029 Z" id="Shape"></path>
                    <path d="M17.615,31.162 C29.9,33.381 41.357,30.437 53.401,27.689 C69.881,23.929 86.201,19.495 102.734,15.956 C118.736,12.53 135.143,9.705 151.564,10.076 C163.743,10.351 176.886,13.06 185.151,22.705 C190.416,28.85 192.236,37.063 192.7,44.941 C196.19,43.398 199.679,41.854 203.17,40.31 C201.066,36.762 198.755,34.724 194.611,33.93 C192.401,33.506 189.178,35.894 189.59,38.334 C190.113,41.43 191.371,43.481 192.946,46.137 C195.975,51.241 203.712,46.553 203.415,41.505 C202.598,27.609 197.383,14.753 185.142,7.287 C173.26,0.041 157.978,-0.412 144.513,0.428 C110.854,2.523 78.42,14.163 46.02,22.584 C41.053,23.875 36.035,24.907 31.046,26.098 C26.824,27.105 22.557,28.712 18.262,29.275 C17.477,29.376 16.363,30.936 17.615,31.162 L17.615,31.162 Z" id="Shape"></path>
                    <path d="M12.5,29.958 C25.906,38.356 39.435,47.194 53.96,53.594 C68.87,60.162 85.159,64.809 101.148,67.808 C134.171,74.002 167.594,69.782 196.69,52.492 C200.55,50.198 202.458,43.065 196.162,43.075 C191.091,43.083 186.277,43.328 181.823,45.992 C179.567,47.341 177.131,52.305 181.243,53.076 C185.381,53.851 189.764,53.38 193.956,53.372 C193.779,50.233 193.603,47.095 193.428,43.955 C165.391,60.629 134.042,63.201 102.482,57.005 C87.165,53.998 71.569,49.807 57.152,43.78 C42.924,37.834 29.175,29.428 13.437,28.425 C12.75,28.381 11.631,29.416 12.5,29.958 L12.5,29.958 Z" id="Shape"></path>
                    <path d="M44.028,420.306 C41.647,433.855 55.365,444.736 66.368,449.774 C76.983,454.633 91.392,456.212 99.99,446.978 C107.618,438.784 101.789,429.196 93.274,425.414 C84.946,421.715 72.614,418.538 64.103,422.73 C62.189,423.671 60.999,426.533 62.981,427.963 C68.02,431.605 76.161,431.089 82.158,432.67 C86.203,433.736 95.911,436.742 93.283,442.577 C91.875,445.705 85.365,445.202 82.686,445.016 C78.116,444.703 73.646,443.495 69.428,441.753 C59.089,437.485 50.996,429.607 46.058,419.649 C45.576,418.677 44.172,419.483 44.028,420.306 L44.028,420.306 Z" id="Shape"></path>
                    <path d="M136.731,458.412 C133.57,476.746 161.433,464.637 155.622,455.114 C154.087,452.597 150.092,455.034 148.913,456.508 C148.359,457.199 148.025,457.993 147.591,458.752 C146.912,459.94 148.029,458.393 147.105,459.514 C148.182,458.207 145.73,460.477 146.917,459.643 C146.575,459.883 146.208,460.084 145.842,460.286 C144.71,460.907 146.571,460.049 145.363,460.477 C144.63,460.737 143.754,460.838 143.247,460.618 C141.94,460.044 141.499,458.899 141.434,457.464 C141.298,454.532 137.077,456.408 136.731,458.412 L136.731,458.412 Z" id="Shape"></path>
                    <path d="M291.942,422.347 C284.375,420.83 275.871,425.65 270.049,429.993 C264.394,434.214 258.439,440.045 257.251,447.332 C255.952,455.306 263.835,458.886 270.388,459.964 C278.138,461.238 286.076,459.685 293.549,457.657 C307.202,453.952 330.706,443.092 325.164,425.025 C322.845,417.462 313.654,416.285 307.001,416.594 C298.253,416.999 289.78,420.162 282.052,424.048 C279.23,425.467 276.658,427.44 274.753,429.979 C273.202,432.046 274.413,434.913 277.207,434.014 C287.843,430.592 299.565,424.141 311.072,426.348 C316.086,427.309 317.928,432.648 315.257,436.852 C311.864,442.193 305.022,445.198 299.365,447.393 C293.207,449.786 286.656,451.419 280.076,452.039 C275.621,452.459 266.52,452.559 264.527,447.505 C262.731,442.953 270.082,437.141 272.938,434.848 C278.332,430.516 284.653,428.094 291.153,426.02 C292.521,425.583 294.188,422.797 291.942,422.347 L291.942,422.347 Z" id="Shape"></path>
                    <path d="M362.237,405.549 C365.888,404.451 369.167,402.62 371.078,399.215 C372.54,396.611 371.553,393.416 368.901,392.126 C366.17,390.798 362.796,391.193 360.047,392.218 C355.818,393.795 350.641,397.254 349.841,402.037 C349.32,405.153 352.272,405.699 354.538,404.66 C355.924,404.025 356.851,403.192 358.199,402.165 C358.353,402.046 359.97,400.796 359.025,401.463 C359.509,401.121 360.028,400.829 360.548,400.547 C361.761,399.894 359.644,400.878 360.861,400.402 C361.321,400.221 361.798,400.092 362.275,399.973 C363.083,399.773 361.486,400.048 362.752,399.903 C363.037,399.87 364.32,399.951 363.116,399.85 C363.366,399.871 363.612,399.924 363.856,399.981 C364.522,400.131 363.066,399.574 363.914,400.068 C363.429,399.647 363.321,399.564 363.593,399.821 C363.83,400.114 363.765,399.982 363.394,399.424 C363.529,399.774 363.509,399.617 363.338,398.959 C363.357,399.347 363.377,399.187 363.401,398.478 C363.676,397.767 363.727,397.617 363.553,398.025 C363.975,397.379 364.046,397.254 363.768,397.652 C363.405,398.156 364.523,396.998 363.502,397.847 C364.365,397.126 362.953,398.206 362.764,398.326 C362.178,398.693 361.557,399.004 360.94,399.309 C359.505,400.022 358.311,401.766 358.398,403.395 C358.507,405.427 360.541,406.06 362.237,405.549 L362.237,405.549 Z" id="Shape"></path>
                    <path d="M61.942,336.102 C53.541,339.422 51.144,349.295 53.816,357.234 C56.302,364.622 68.92,374.896 76.149,367.609 C77.19,366.558 78.485,364.728 77.705,363.144 C77.622,362.976 77.539,362.808 77.455,362.638 C76.689,361.083 75.5,360.657 73.848,360.624 C68.561,360.525 64.014,357.442 61.638,352.774 C59.037,347.667 60.888,343.518 63.808,339.169 C64.81,337.675 64.15,335.23 61.942,336.102 L61.942,336.102 Z" id="Shape"></path>
                    <path d="M111.256,396.451 C110.908,397.651 110.287,399.014 110.557,400.342 C110.887,401.968 111.616,403.145 112.945,404.139 C115.611,406.131 119.673,405.963 122.73,405.243 C126.689,404.31 128.962,396.924 123.407,397.154 C121.408,397.236 119.695,397.642 118.182,397.371 C117.228,397.2 118.599,397.621 117.793,397.226 C117.469,397.019 117.447,397.019 117.73,397.226 C117.587,397.089 117.46,396.941 117.35,396.779 C117.803,397.369 117.019,396.2 116.891,396.017 C116.664,395.662 116.664,395.702 116.89,396.14 C116.881,395.862 116.89,395.583 116.912,395.308 C116.979,394.086 115.698,393.392 114.642,393.478 C112.994,393.612 111.701,394.92 111.256,396.451 L111.256,396.451 Z" id="Shape"></path>
                    <path d="M279.627,16.42 C279.333,19.209 279.427,21.9 279.53,24.703 C279.647,27.877 280.608,32.331 279.501,35.374 C281.778,34.047 284.056,32.721 286.333,31.394 C276.792,29.197 267.085,30.724 258.056,34.225 C249.433,37.568 239.672,43.414 235.287,51.894 C234.613,53.197 235.746,54.567 237.153,54.021 C244.047,51.346 250.243,47.039 257.071,44.147 C264.916,40.824 273.374,39.217 281.778,41.054 C285.271,41.818 290.768,37.227 288.906,33.458 C287.576,30.767 287.591,27.079 287.032,24.147 C286.43,20.994 285.746,17.804 284.421,14.874 C283.386,12.586 279.833,14.456 279.627,16.42 L279.627,16.42 Z" id="Shape"></path>
                    <path d="M193.723,480.791 C195.991,479.923 197.905,478.591 200.273,477.936 C203.138,477.145 206.181,476.797 209.146,476.69 C211.46,476.606 214.093,476.98 216.284,476.088 C218.93,475.012 222.205,471.945 220.872,468.719 C218.983,464.151 208.294,467.903 204.931,468.655 C200.048,469.747 191.995,472.985 191.079,478.659 C190.822,480.245 192.17,481.386 193.723,480.791 L193.723,480.791 Z" id="Shape"></path>
                </g>
            </g>
        </g>
    </g>
</svg>
